X:1
T:Over on the Golden Shore
T:Over on the Golden Shore
T:R. H. Woods
T:Laura Emeline Pixley Newell, 1898
T:Public Domain Courtesy of the Cyber Hymnal™
T:Public Domain Courtesy of the Cyber Hymnal™
C:R. H. Woods
Z:Public Domain
Z:Courtesy of the Cyber Hymnal™
%%score ( 1 2 ) ( 3 4 )
L:1/8
Q:1/4=107
M:4/4
K:G
V:1 treble 
V:2 treble 
V:3 bass 
V:4 bass 
V:1
 D2 | [DG]2 [DG]2 [DG]2 [GB]2 | [Gd]2 [Ge]2 [Gd]4 | [GB][FA]G[DA] [GB]2 [Gd]2 | [FA]6 D2 | %5
w: 1.~There’s|love and peace and|joy and rest,|O- ver on the gold- en|shore; The|
w: 2.~Our|trea- sures and our|hearts are there,|O- ver on the gold- en|shore; Where|
w: 3.~Our|dear ones wait, who|passed from sight,|O- ver on the gold- en|shore; But|
w: 4.~They’re|safe be- side the|Fath- er’s throne,|O- ver on the gold- en|shore; The|
w: 5.~At|home with Christ we|soon shall be,|O- ver on the gold- en|shore; And|
w: 6.~Then|loy- al un- to|Him who reigns,|O- ver on the gold- en|shore; We’ll|
 [DG]2 [DG]2 [DG]2 [GB]2 | [Gd]2 [Ge]2 [Gd]4 | [GB][FA]G[GA] [GB]2 [FA]2 | G6 z2 || %9
w: friends are there that|we love best,|O- ver on the gold- en|shore.|
w: all is bright and|skies are fair,|O- ver on the gold- en|shore.|
w: there with them we|shall u- nite,|O- ver on the gold- en|shore.|
w: Sav- ior claimed them|for His own,|O- ver on the gold- en|shore.|
w: there His beau- ty|we shall see,|O- ver on the gold- en|shore.|
w: praise our king whose|love sus- tains,|O- ver on the gold- en|shore.|
"^Refrain" [Gd]2 [Gd]>[Gd] [Ge] [Gd]3 | [GB][FA]G[DA] [GB]2 [G^c]2 | [Fd]6 z2 | %12
w: |||
w: |||
w: Think of the meet- ing,|O- ver on the gold- en|shore;|
w: |||
w: |||
w: |||
 [Gd]2 [Gd]>[Gd] [Ge] [Gd]3 | [GB][FA]G[GA] [GB]2 [DA]2 | [DG]6 |] %15
w: |||
w: |||
w: Pic- ture the greet- ing,|O- ver on the gold- en|shore.|
w: |||
w: |||
w: |||
V:2
 D2 | x8 | x8 | x2 G x5 | x6 D2 | x8 | x8 | x2 G x5 | G6 x2 || x8 | x2 G x5 | x8 | x8 | x2 G x5 | %14
 x6 |] %15
V:3
 [G,B,]2 | [G,B,]2 [G,B,]2 [G,B,]2 [G,D]2 | [G,B,]2 [G,C]2 [G,B,]4 | %3
 [G,D][G,C][G,B,][G,C] [G,D]2 [B,,D]2 | [D,D]6 [G,B,]2 | [G,B,]2 [G,B,]2 [G,B,]2 [G,D]2 | %6
 [G,B,]2 [G,C]2 [G,B,]4 | [G,D][G,C][G,B,][G,C] [D,D]2 [D,C]2 | [G,B,]6 z2 || %9
 [G,B,]2 [G,B,]>[G,B,] [G,C] [G,B,]3 | [G,D][G,C][G,B,][G,C] [G,D]2 A,2 | [D,A,]6 z2 | %12
 [G,B,]2 [G,B,]>[G,B,] [G,C] [G,B,]3 | [G,D][G,C][G,B,][G,C] [D,D]2 [D,C]2 | [G,,G,B,]6 |] %15
V:4
 x2 | x8 | x8 | x8 | x8 | x8 | x8 | x8 | x8 || x8 | x6 A,2 | x8 | x8 | x8 | x6 |] %15

